!!!!SEGMENT: pl-kc--40102-iii-1-saf--002-030_zielenski-mikolaj--communiones-totius-anni-in-nativitate-domini-ad-tertiam-missam-viderunt-omnes-fines-terrae.krn
!!!cenid: 16xx:1561
!!!COM: Zieleński, Mikołaj
!!!COM-rismID: pe30013481
!!!CDT: <1611->1611
!!!CNT: Polish
!!!GTL: Communiones totius anni
!!!OTL: In Nativitate Domini ad tertiam Missam/Viderunt omnes fines terrae
!!!OMV: 030
!!!PDT: 1611
!!!AGN:
!!!SMS-siglum: PL-Kc
!!!SMS-shelfmark: 40102 III/1 Saf.
!!!SMS-shelfwork: 002-030 G
!!!SMS-variant:
!!!SMS-altvar:
!!!NIFC-rismSourceID: 990069887
!!!NIFC-rismChildID: 990069887
!!!NIFC-islandoraID: none
!!!URL-pdf-islandora:
!!!URL-scan: https://cyfrowe.mnk.pl/dlibra/publication/24235/edition/23926/content?ref=desc @EN{Scan on The National Museum in Krakow Website} @PL{Skany w portalu Biblioteka Cyfrowa Muzeum Narodowego w Krakowie}
!!!IIIF:
!!!ONB-nifc: UWAGA: str. 59. Numer w źródle: 34 Uwaga: W xml metrum 2/1 do źródłowego C| i odpowiednio 3/1 do 3/2
!!!AIN: 4 organ
!!!key:
**kern	**kern	**kern	**kern
*part4	*part3	*part2	*part1
*staff4	*staff3	*staff2	*staff1
*I"	*I"	*I"	*I"Organo
*I'	*I'	*I'	*I'org
*Iorgan	*Iorgan	*Iorgan	*Iorgan
*ICklav	*ICklav	*ICklav	*ICklav
*clefF4	*clefC4	*clefC3	*clefC1
*k[b-]	*k[b-]	*k[b-]	*k[b-]
*F:	*F:	*F:	*F:
*M2/1	*M2/1	*M2/1	*M2/1
*met(C|)	*met(C|)	*met(C|)	*met(C|)
=1	=1	=1	=1
!	!	!	!LO:TX:a:t=34. In Natiuitate Domini ad tertiam Miſſam. Soli debent has quatuor voces cum Organo ſine inſtrumentis.
!LO:TX:t=Alio modo, Semplice, Cantotes cum Inſtrumentis, 38.	!	!	!LO:TX:b:t=Viderunt omnes fines terrae.
00r	00r	1r	1cc
.	.	1f	1cc
=2-	=2-	=2-	=2-
.	.	1f	2a\
.	.	.	1cc
.	.	2d\	.
.	.	[<2f\	4b-\
.	.	.	4a\
=3	=3	=3	=3
0r	1c	2f\]	2g/
.	.	4e\	2.cc\
.	.	4d\	.
.	1c	4e\	.
.	.	4f\	4dd\
.	.	2g\	2ee\
=4-	=4-	=4-	=4-
1F	2A/	2a\	2ff\
.	2.c\	2.A/	2cc\
1F	.	.	1cc
.	4B-\	4B-/	.
.	4A/	4c/	.
.	4G/	8B-/	.
.	.	8c/	.
=5	=5	=5	=5
2D/	2A/	1d	1f
1F	1A	.	.
.	.	2c/	0r
2D/	4G/	2.f\	.
.	4F/	.	.
=6-	=6-	=6-	=6-
1C	2G/	.	.
.	.	8e\	.
.	.	8d\	.
.	2G/	2e\	.
2.F\	2.A/	1f	2r
.	.	.	2cc\
4G\	4B-\	.	.
=7	=7	=7	=7
1A	1c	1r	1cc
1B-	2d\	2r	2f/
.	2.d\	2f\	2.ff\
=8-	=8-	=8-	=8-
1BB-	.	1f	.
.	4c\	.	4ee\
.	2B-\	.	2dd\
2.F\	2A/	2c/	2cc\
.	[2A/	[y2f\	2a\
4E\	.	.	.
=9	=9	=9	=9
!	!	!LO:N:xstem:cue	!
2D/	2A/]	4f\]	2.dd\
.	.	4e\	.
1G	1B-	1d	.
.	.	.	4cc\
.	.	.	4b-\
.	.	.	4g\
!	!LO:SIC:v:s=2e-\	!	!
2C/	2e\	2g\	2.cc\
=10-	=10-	=10-	=10-
2G\	1d	2.g\	.
!	!	!	!LO:N:acc=#
.	.	.	8bn\
.	.	.	8a\
2GG/	.	.	2b\
.	.	4f\	.
1C	2c\	4e\	1cc
.	.	4d\	.
.	4r	2e\	.
.	4c\	.	.
=11	=11	=11	=11
1r	2c\	2e\	4r
.	.	.	4cc\
.	2.A/	2e\	2cc\
4r	.	1f	1a
4F\	4B-\	.	.
2F\	2c\	.	.
=12-	=12-	=12-	=12-
2C/	2c\	2e\	2r
2.D/	1A	2.f\	4r
.	.	.	4ff\
.	.	.	2ff\
4E\	.	4g\	.
2F\	2A/	2a\	2cc\
*custos:BB	*custos:B	*custos:f	*custos:dd
!!!linebreak
=13	=13	=13	=13
2BB-/	1B-	2r	2dd\
2B-\	.	2.f\	2dd\
2A\	2c\	.	2.cc\
.	.	4e\	.
1F\	2.A/	4a\	.
.	.	4g\	4b-\
=14-	=14-	=14-	=14-
.	.	2f\	2a\
.	4B-\	.	.
2E\	4c\	1c	2.g/
.	4B-\	.	.
2F\	2A/	.	.
.	.	.	4f/
2FF/	2A/	2c/	[y2f/
=15	=15	=15	=15
!	!	!	!LO:N:xstem:cue
1C	1G	1c	4f/]
.	.	.	8e/
.	.	.	8d/
.	.	.	2e/
1FF	2A/	2c/	0f
.	4A/	4c/	.
.	4A/	4c/	.
=16-	=16-	=16-	=16-
0r	8D/	8F/	.
.	8E/	8G/	.
.	8F/	8A/	.
.	8G/	8B-/	.
.	4.A/	4c/	.
.	.	2f\	.
.	16G/	.	.
.	16A/	.	.
!	!LO:N:acc=#	!	!
.	4Bni\	.	1r
.	2c\	4e\	.
.	.	2d\	.
!	!LO:N:acc=#	!	!
.	4Bn\i	.	.
=17	=17	=17	=17
1r	2c\	2A/	4cc\
.	.	.	4cc\
.	4d\	4f\	8f/
.	.	.	8g/
.	4d\	4f\	8a\
.	.	.	8b-\
4F\	8A\	2c/	4cc\
.	8B-\	.	.
4F\	8c\	.	4cc\
.	8A\	.	.
8BB-/	2B-\	2f\	2dd\
8C/	.	.	.
8D/	.	.	.
!LO:N:vis=8	!	!	!
16E\	.	.	.
!LO:N:vis=8	!	!	!
16F\	.	.	.
=18	=18	=18	=18
4F\	2A/	4.f\	4cc\
4F\	.	.	4.dd\
.	.	8e\	.
4.G\	2.B-\	4d\	.
.	.	.	8cc\
.	.	4d\	8b-\
8F\	.	.	8a\
4E-X\	.	2.g\	8b-\
.	.	.	8a\
!	!LO:SIC:v:s=4e-\	!	!
4C/	4e\	.	2cc\
2G\	2d\	.	.
!	!	!	!LO:N:acc=#
.	.	4f\	4bni\
=19	=19	=19	=19
1C	2c\	2e\	0cc
.	4G/	4e\	.
.	4G/	4e\	.
2r	4.A/	8c\	.
.	.	8d\	.
.	.	8e\	.
.	16G/	8f\	.
.	16F/	.	.
4C/	4E/	4g\	.
4C/	4G/	4e\	.
=20-	=20-	=20-	=20-
8FF/	2F/	2a\	0r
8GG/	.	.	.
8AA/	.	.	.
8BB-/	.	.	.
4C/	2E/	4g\	.
4C/	.	4.a\	.
4.D/	2.F/	.	.
.	.	8g\	.
.	.	8f\	.
8C/	.	8e\	.
4BB-/	.	8f\	.
.	.	8d\	.
4GG/	4B-\	4g\	.
=21	=21	=21	=21
4.AA/	2A/	4g\	1r
.	.	2f\	.
8BB-/	.	.	.
2C/	2G/	.	.
.	.	4e\	.
0FF	1.A	1f	2r
.	.	.	4cc\
.	.	.	4cc\
=22-	=22-	=22-	=22-
.	.	2r	8f/
.	.	.	8g/
.	.	.	8a\
.	.	.	8b-\
.	4A/	4c/	4cc\
.	4A/	4c/	4a\
!LO:N:vis=2	!	!	!
1r	8D/	2f\	2dd\
.	8E/	.	.
.	8F/	.	.
.	8G/	.	.
.	4A/	4e\	4cc\
.	4F/	4f\	[<4dd\
=23	=23	=23	=23
1r	4G/	4f\	4dd\]
.	4C/	4e\	2cc\
.	1G	2d\	.
!	!	!	!LO:N:acc=#
.	.	.	4bn\
4C/	.	2e\	1cc
4C/	.	.	.
8FF/	4.A/	4f\	.
8GG/	.	.	.
8AA/	.	4f\	.
8BB-/	16G/	.	.
.	16F/	.	.
=24-	=24-	=24-	=24-
4.C/	4E/	8c\	1r
.	.	8d\	.
.	4c\	8e\	.
16BB-/	.	8f\	.
16AA/	.	.	.
4GG/	4B-\	4g\	.
4AA/	2A/	4c/	.
2BB-/	.	2d\	2r
.	4G/	.	.
2AA/	2A/	4c/	4cc\
.	.	4f\	4cc\
=25	=25	=25	=25
2r	4B-\	4f\	2dd\
.	4B-\	8e\	.
.	.	8d\	.
4F\	2A/	4a\	2cc\
4F\	.	2f\	.
2C/	2G/	.	2r
.	.	4e\	.
2D/	4F/	2f\	4a\
.	4F/	.	4a\
=26-	=26-	=26-	=26-
2r	2G/	2.d\	2b-\
4D/	4.F/	.	2a\
4D/	.	4d\	.
.	8E/	.	.
2GG/	2D/	4.B-/	2r
.	.	8A/	.
4.C/	4E/	2G/	4g/
.	4E/	.	4g/
8BB-/	.	.	.
=27	=27	=27	=27
2AA/	4.F/	2c/	4.a\
.	8E/	.	8g/
4.BB-/	4D/	2d\	4f/
.	4.G/	.	4.b-\
8AA/	.	.	.
4GG/	.	4d\	.
.	8F/	.	8a\
4.C/	8E/	2e\	2g/
.	8D/	.	.
.	4E/	.	.
8BB-/	.	.	.
8AA/	4.A/	4e\	4.cc\
8GG/	.	.	.
=28-	=28-	=28-	=28-
2FF/	.	4f\	.
.	8G/	.	8b-\
.	8F/	4c/	8a\
.	8E/	.	8g\
4.BB-/	4D/	2.d\	4f/
.	4.G/	.	4.b-\
8AA/	.	.	.
2GG/	.	.	.
.	8A/	.	8a\
.	4B-\	4d\	2g\
4.AA/	2A/	2c/	.
.	.	.	[4f/
8BB-/	.	.	.
*custos:C	*custos:G	*custos:c	*custos:f
!!linebreak:original
=29	=29	=29	=29
!	!	!	!LO:SIC:v:s=4f/]
1C	1G	2c/	4g/]
.	.	.	8e/
.	.	.	8d/
.	.	2c/	2e/
1FF	1A	1c	1f
=30-	=30-	=30-	=30-
*M3/2	*M3/2	*M3/2	*M3/2
!LO:N:vis=00	!	!	!
00.r	1f	1a	1cc
.	1d	1a	1ff
.	1G	1g	1dd
=31-	=31-	=31-	=31-
.	0.c	0.g	0.ee
=32	=32	=32	=32
!	!	!	!LO:N:vis=00
1F	1c	1a	00.r
1D	1f	1a	.
1G	1d	1g	.
=33-	=33-	=33-	=33-
0.C	0.e	0.g	.
=34-	=34-	=34-	=34-
!LO:N:vis=00	!	!	!
00.r	1c	1e	1cc
.	1d	1f	1a
.	1B-	1d	1b-
=35-	=35-	=35-	=35-
.	0.A	0.e	1.cc
.	.	.	2b-\
.	.	.	2a\
.	.	.	2g/
=36	=36	=36	=36
1D	1F	1d	1a
1BB-	1F	1d	1b-
1C	1E	1c	1g
=37-	=37-	=37-	=37-
0FF	0.F	0.c	0.a
1F	.	.	.
=38-	=38-	=38-	=38-
1BB-	1D	1G	1g
1C	1E	1G	1e
1FF	1C	1A	1f
=39-	=39-	=39-	=39-
1.C	0E	0G	2g/
.	.	.	2c/
.	.	.	1.cc
2BB-/	.	.	.
1AA	1E	1A	.
.	.	.	2b-\
=40	=40	=40	=40
1FF	0F	1.c	1a
0C	.	.	0g
.	.	2B-/	.
.	1E	1G	.
=41-	=41-	=41-	=41-
*M2/1	*M2/1	*M2/1	*M2/1
*met(C|)	*met(C|)	*met(C|)	*met(C|)
2FF/	4F/	2A/	2f/
.	4G/	.	.
1F	4A/	4c/	4f/
.	4B-\	4B-/	4g/
.	2c\	4A/	4a\
.	.	4G/	4b-\
2F\	1F/	2A/	4cc\
.	.	.	4a\
=42-	=42-	=42-	=42-
1BB-	.	2d\	2b-\
.	2F/	2d\	2b-\
=	=	=	=
2F\	2.A/	2c/	2a\
1D\	.	1f\	1dd\
.	4G/	.	.
=43-	=43-	=43-	=43-
.	4A/	.	.
.	4B-\	.	.
2AA/	2c\	2f\	1cc
1.BB-	1.d	0.f	.
.	.	.	4b-\
.	.	.	4a\
=44-	=44-	=44-	=44-
.	.	.	4b-\
.	.	.	4f/
2BB-/	2d\	.	4b-\
.	.	.	4cc\
1BB-	2d\	.	1dd
.	1B-\	.	.
=45-	=45-	=45-	=45-
0FFl	.	0fl	0ccl
.	4A/	.	.
.	4G/	.	.
.	1Al	.	.
==	==	==	==
*-	*-	*-	*-
!!!system-decoration: [(s1,s2,s3,s4)]
!!!RDF**kern: l = terminal long
!!!RDF**kern: i = editorial accidental
!!!RDF**kern: > = above
!!!RDF**kern: < = below
!!!ENC: Katarzyna Serwa
!!!END: 2021-12-25
!!!ENC: Anastazja Marusiak
!!!END: 2021-12-20
!!!YEC: Copyright 2022 Narodowy Instytut Fryderyka Chopina (https://polishscores.org)
!!!YEM: License CC-BY-4.0 (https://creativecommons.org/licenses/by/4.0)
